X: 2
T:Captain With His Whiskers, Brackley 2
M:4/4
L:1/4
A:Brackley
P:A(AB)6A
K:G
P:A
GA|B2 BA |Bd cB|BA AG |A2 Bc|
d2 Bc |dc BA|AG GG |G2   ||
P:B
gf|fe c>B|c2 fe|ed B>A|B2 fe|
ed cB |dc BA|AG GG |G2   ||
